X:1
T:Title
%%score { 1 | 2 }
L:1/8
M:4/4
K:Db
V:1 treble nm="Grand Piano"
V:2 bass 
V:1
 z4 z2[Q:1/4=100] [DF][EG] | [FA]2 [Fd]2 [Fe]2 [FB]2 | [Gd]2 [Gc]4 EF | G2 A2 c3 B |[M:3/4] [FA]6 | %5
[M:1/4] [DF][FA] |[M:4/4] [Fe]2 [Fd]2 [FA]2 [_FB]2 | [Ec]2 [Ee]4 [CE][C_F] | %8
 [DF]2 [DA]2 [DB]3 [Dc] |[M:3/4] [CA]6 |[M:1/4] [DF][FA] |[M:4/4] [Fe][Fd][Fc][Fd] [FB]2 F2 | %12
 A2 G4 cd | ecBA G2 [CGB]2 | [DFA]6 [A,DF][A,FA] |[M:2/4] [Fd][Fc] [Fe][Fd] | [FA]2 [_FB]2 | %17
[M:4/4] c2 e4 EE | [=DF]2 [DA]2 [_DB]2 [Dc]2 | [CA]6 [DF][FA] | [Fe][Fd][Fc][Fd] [FB]2 F2 | %21
 A2 G4 cd | ecBA G2 [CGB]2 | [DFA]6 [A,DF][A,FA] |[M:2/4] [Fd][Fc] [Fe][Fd] | [FA]2 [Ad]2 | %26
[M:4/4] [Ac]2 [GB]4 [Ac]B | AFAd c2 e2 |[M:3/4] [Fd]6 |] %29
V:2
 z4 z2 [D,A,][D,A,] | [D,A,]2 [D,A,]2 [D,A,]2 [D,A,]2 | [E,A,]2 [E,A,]4[K:treble] [A,C][A,D] | %3
 [A,CE]2 [A,CF]2 [A,EG]3 [A,CG] |[M:3/4][K:bass] [D,D]6 |[M:1/4] [D,A,][D,A,] | %6
[M:4/4] [D,A,]2 [D,A,]2 [D,A,]2 [D,A,]2 | [E,A,]2 [C,A,]4 [A,,A,][A,,A,] | %8
 [D,A,]2 [B,,B,]2 [E,=G,]3 [E,G,] |[M:3/4] [A,,A,]6 |[M:1/4] [D,A,][D,A,] | %11
[M:4/4] [D,A,][D,A,][D,A,][D,A,] [D,D]2 [D,A,D]2 | [E,A,C]2 [E,A,]4[K:treble] [A,G][A,B,G] | %13
 [A,CG][A,EG][A,DG][K:bass][A,CE] [A,CE]2 A,,2 | D,6 D,D, |[M:2/4] [D,A,][D,A,] [D,A,][D,A,] | %16
 [D,D]2 [D,A,]2 |[M:4/4] [E,A,E]2 [E,CE]4 [C,A,][C,A,] | [B,,A,]2 [B,,F,]2 [E,=G,]2 [E,G,]2 | %19
 [A,,A,]6 [D,A,][D,A,] | [D,A,][D,A,][D,A,][D,A,] [D,D]2 [D,A,D]2 | %21
 [E,A,C]2 [E,A,]4[K:treble] [A,G][A,B,G] | [A,CG][A,EG][A,DG][K:bass][A,CE] [A,CE]2 A,,2 | %23
 D,6 D,D, |[M:2/4] [D,A,][D,A,] [D,A,][D,A,] | [D,D]2 [F,D]2 | %26
[M:4/4] [G,D]2 [G,D]4 [G,D][K:treble][G,DG] | [A,DF][A,D][A,DF][A,FA] [A,EG]2 [A,CG]2 | %28
[M:3/4][K:bass] [D,D]6 |] %29

